assets/Birthday cake/Flat/birthday_cake_flat.svg

<svg width="32" height="32" viewBox="0 0 32 32" fill="none" xmlns="http://www.w3.org/2000/svg">
<path d="M8.5 10.9976V6.95758C8.5 6.66758 8.62 6.38758 8.82 6.18758L9.5 5.51758L10.18 6.18758C10.38 6.38758 10.5 6.66758 10.5 6.95758V10.9976H8.5ZM15 10.9976V6.95758C15 6.66758 15.12 6.38758 15.32 6.18758L16 5.51758L16.68 6.18758C16.88 6.38758 17 6.66758 17 6.95758V10.9976H15ZM21.5 6.95758V10.9976H23.5V6.95758C23.5 6.66758 23.39 6.38758 23.18 6.18758L22.5 5.51758L21.82 6.18758C21.62 6.38758 21.5 6.66758 21.5 6.95758Z" fill="#26EAFC"/>
<path d="M10.78 3.7275L9.87999 2.2175C9.70999 1.9275 9.27999 1.9275 9.10999 2.2175L8.21999 3.7275C8.04999 4.0075 7.96999 4.3375 8.00999 4.6875C8.08999 5.3775 8.63999 5.9275 9.32999 5.9975C10.23 6.0975 11 5.3975 11 4.5075C10.99 4.2275 10.91 3.9575 10.78 3.7275ZM17.28 3.7275L16.39 2.2175C16.22 1.9275 15.79 1.9275 15.62 2.2175L14.73 3.7275C14.56 3.9975 14.48 4.3375 14.52 4.6875C14.6 5.3675 15.15 5.9175 15.84 5.9975C16.74 6.0975 17.51 5.3975 17.51 4.5075C17.5 4.2275 17.42 3.9575 17.28 3.7275ZM22.89 2.2175L23.78 3.7275C23.92 3.9575 24 4.2275 24 4.5075C24 5.3975 23.24 6.0975 22.33 5.9975C21.65 5.9275 21.1 5.3775 21.02 4.6875C20.98 4.3375 21.06 3.9975 21.23 3.7275L22.12 2.2175C22.29 1.9275 22.72 1.9275 22.89 2.2175Z" fill="#FCD53F"/>
<path d="M9.49999 3.13745L10.11 3.91745C10.26 4.07745 10.35 4.27745 10.35 4.50745C10.35 4.97745 9.96999 5.35745 9.49999 5.35745C9.02999 5.35745 8.64999 4.97745 8.64999 4.50745C8.64999 4.27745 8.73999 4.07745 8.88999 3.91745L9.49999 3.13745ZM16.61 3.91745L16 3.13745L15.39 3.92745C15.24 4.07745 15.15 4.28745 15.15 4.51745C15.15 4.98745 15.53 5.36745 16 5.36745C16.47 5.36745 16.85 4.98745 16.85 4.51745C16.85 4.27745 16.76 4.07745 16.61 3.91745ZM23.11 3.91745L22.5 3.13745L21.89 3.92745C21.74 4.07745 21.65 4.28745 21.65 4.51745C21.65 4.98745 22.03 5.36745 22.5 5.36745C22.97 5.36745 23.35 4.98745 23.35 4.51745C23.35 4.27745 23.26 4.07745 23.11 3.91745Z" fill="#FFB02E"/>
<path d="M27.75 29.9976H4.25C3.56 29.9976 3 29.4376 3 28.7476V14.9976H29V28.7476C29 29.4376 28.44 29.9976 27.75 29.9976Z" fill="#D3883E"/>
<path d="M2 12C2 10.3431 3.34314 9 5 9H27.01C28.6669 9 30.01 10.3431 30.01 12V16.9975V17.5575C30.01 18.3775 28.97 18.7575 28.45 18.1175C27.94 17.4875 27.02 17.3875 26.39 17.8875L26.15 18.0775C24.7 19.2075 22.67 19.2075 21.22 18.0775L20.76 17.7175C20.22 17.2975 19.47 17.2975 18.93 17.7175L18.47 18.0775C17.02 19.2075 14.99 19.2075 13.54 18.0775L13.08 17.7175C12.54 17.2975 11.79 17.2975 11.25 17.7175L10.79 18.0775C9.34 19.2075 7.31 19.2075 5.86 18.0775L5.62 17.8875C4.99 17.3975 4.07 17.4975 3.56 18.1175C3.03 18.7475 2 18.3775 2 17.5575V12ZM3 21.9975H29V23.9975H3V21.9975Z" fill="#FFDEA7"/>
<path d="M15.15 11.15C14.95 11.35 14.95 11.66 15.15 11.86L15.89 12.6C16.09 12.8 16.4 12.8 16.6 12.6C16.8 12.4 16.8 12.09 16.6 11.89L15.86 11.15C15.66 10.95 15.34 10.95 15.15 11.15Z" fill="#00A6ED"/>
<path d="M6.85355 11.1464C6.65829 10.9512 6.34171 10.9512 6.14645 11.1464C5.95118 11.3417 5.95118 11.6583 6.14645 11.8536L7.14645 12.8536C7.34171 13.0488 7.65829 13.0488 7.85355 12.8536C8.04882 12.6583 8.04882 12.3417 7.85355 12.1464L6.85355 11.1464ZM19.8536 14.1464C19.6583 13.9512 19.3417 13.9512 19.1464 14.1464C18.9512 14.3417 18.9512 14.6583 19.1464 14.8536L20.1464 15.8536C20.3417 16.0488 20.6583 16.0488 20.8536 15.8536C21.0488 15.6583 21.0488 15.3417 20.8536 15.1464L19.8536 14.1464Z" fill="#FF6DC6"/>
<path d="M25.8536 11.8536C26.0488 11.6583 26.0488 11.3417 25.8536 11.1464C25.6583 10.9512 25.3417 10.9512 25.1464 11.1464L24.1464 12.1464C23.9512 12.3417 23.9512 12.6583 24.1464 12.8536C24.3417 13.0488 24.6583 13.0488 24.8536 12.8536L25.8536 11.8536ZM11.8536 14.8536C12.0488 14.6583 12.0488 14.3417 11.8536 14.1464C11.6583 13.9512 11.3417 13.9512 11.1464 14.1464L10.1464 15.1464C9.95118 15.3417 9.95118 15.6583 10.1464 15.8536C10.3417 16.0488 10.6583 16.0488 10.8536 15.8536L11.8536 14.8536Z" fill="#FF822D"/>
<path d="M15.1464 11.1464C15.3417 10.9512 15.6583 10.9512 15.8536 11.1464L16.8536 12.1464C17.0488 12.3417 17.0488 12.6583 16.8536 12.8536C16.6583 13.0488 16.3417 13.0488 16.1464 12.8536L15.1464 11.8536C14.9512 11.6583 14.9512 11.3417 15.1464 11.1464Z" fill="#00A6ED"/>
</svg>

<svg xmlns="http://www.w3.org/2000/svg" width="32" height="32" fill="none"><path fill="#26EAFC" d="M8.5 10.998v-4.04c0-.29.12-.57.32-.77l.68-.67.68.67c.2.2.32.48.32.77v4.04h-2Zm6.5 0v-4.04c0-.29.12-.57.32-.77l.68-.67.68.67c.2.2.32.48.32.77v4.04h-2Zm6.5-4.04v4.04h2v-4.04c0-.29-.11-.57-.32-.77l-.68-.67-.68.67c-.2.2-.32.48-.32.77Z"/><path fill="#FCD53F" d="m10.78 3.728-.9-1.51a.45.45 0 0 0-.77 0l-.89 1.51c-.17.28-.25.61-.21.96.08.69.63 1.24 1.32 1.31.9.1 1.67-.6 1.67-1.49a1.72 1.72 0 0 0-.22-.78Zm6.5 0-.89-1.51a.45.45 0 0 0-.77 0l-.89 1.51c-.17.27-.25.61-.21.96.08.68.63 1.23 1.32 1.31.9.1 1.67-.6 1.67-1.49-.01-.28-.09-.55-.23-.78Zm5.61-1.51.89 1.51c.14.23.22.5.22.78 0 .89-.76 1.59-1.67 1.49-.68-.07-1.23-.62-1.31-1.31-.04-.35.04-.69.21-.96l.89-1.51c.17-.29.6-.29.77 0Z"/><path fill="#FFB02E" d="m9.5 3.137.61.78a.849.849 0 1 1-1.46.59c0-.23.09-.43.24-.59l.61-.78Zm7.11.78-.61-.78-.61.79a.85.85 0 1 0 1.46.59c0-.24-.09-.44-.24-.6Zm6.5 0-.61-.78-.61.79a.85.85 0 1 0 1.46.59c0-.24-.09-.44-.24-.6Z"/><path fill="#D3883E" d="M27.75 29.998H4.25c-.69 0-1.25-.56-1.25-1.25v-13.75h26v13.75c0 .69-.56 1.25-1.25 1.25Z"/><path fill="#FFDEA7" d="M2 12a3 3 0 0 1 3-3h22.01a3 3 0 0 1 3 3v5.557c0 .82-1.04 1.2-1.56.56-.51-.63-1.43-.73-2.06-.23l-.24.19a4.009 4.009 0 0 1-4.93 0l-.46-.36c-.54-.42-1.29-.42-1.83 0l-.46.36a4.009 4.009 0 0 1-4.93 0l-.46-.36c-.54-.42-1.29-.42-1.83 0l-.46.36a4.009 4.009 0 0 1-4.93 0l-.24-.19c-.63-.49-1.55-.39-2.06.23-.53.63-1.56.26-1.56-.56V12Zm1 9.997h26v2H3v-2Z"/><path fill="#00A6ED" d="M15.15 11.15c-.2.2-.2.51 0 .71l.74.74c.2.2.51.2.71 0 .2-.2.2-.51 0-.71l-.74-.74c-.2-.2-.52-.2-.71 0Z"/><path fill="#FF6DC6" d="M6.854 11.146a.5.5 0 0 0-.708.708l1 1a.5.5 0 0 0 .708-.708l-1-1Zm13 3a.5.5 0 0 0-.708.708l1 1a.5.5 0 0 0 .708-.708l-1-1Z"/><path fill="#FF822D" d="M25.854 11.854a.5.5 0 0 0-.708-.708l-1 1a.5.5 0 0 0 .708.708l1-1Zm-14 3a.5.5 0 0 0-.708-.708l-1 1a.5.5 0 0 0 .708.708l1-1Z"/><path fill="#00A6ED" d="M15.146 11.146a.5.5 0 0 1 .708 0l1 1a.5.5 0 0 1-.708.708l-1-1a.5.5 0 0 1 0-.708Z"/></svg>
